X:5784
T:Sarsfield's March
O:england
R:March
C:Traditional, arr. Roger Landes
M:2/4
L:1/16
Q:110
K:C
A,G,||C2CC C2CC|DDDE FEDE|C2CC CEGc|BGFD EEED|
C2A,G, C2A,G,|DDDE FEDE|FGAB c2GF|1 E2C2 C2A,G,:|2 E2C2 C3G||
GABc BAGE|GABc A2GE|GAcA A/2G/2EE/2D/2C|E2D2 D2DE|
F2FG ABc2|E2DC C3C|FAcA GEDC|1 D2C2 C3G:|2 D2C2 C2A,G,||


